; generated by Slic3r 1.2.9 on 2016-10-06 at 21:08:16

; external perimeters extrusion width = 0.50mm
; perimeters extrusion width = 0.72mm
; infill extrusion width = 0.72mm
; solid infill extrusion width = 0.72mm
; top infill extrusion width = 0.72mm

M107
M190 S89 ; set bed temperature
M104 S230 ; set temperature
G28 ; home all axes
G1 Z5 F5000 ; lift nozzle

M109 S230 ; wait for temperature to be reached
G21 ; set units to millimeters
G90 ; use absolute coordinates
M82 ; use absolute distances for extrusion
G92 E0
G1 Z0.350 F7800.000
G1 E-2.00000 F2400.00000
G92 E0
G1 X55.947 Y13.467 F7800.000
G1 E2.00000 F2400.00000
G1 X56.068 Y13.094 E2.03560 F1800.000
G1 X56.632 Y11.828 E2.16165
G1 X56.827 Y11.490 E2.19717
G1 X57.641 Y10.370 E2.32300
G1 X57.902 Y10.080 E2.35853
G1 X58.932 Y9.152 E2.48457
G1 X59.249 Y8.922 E2.52015
G1 X60.447 Y8.231 E2.64595
G1 X60.804 Y8.071 E2.68153
G1 X62.119 Y7.644 E2.80722
G1 X62.249 Y7.616 E2.81934
G1 X62.504 Y7.562 E2.84299
G1 X63.881 Y7.418 E2.96889
G1 X136.119 Y7.418 E9.53752
G1 X137.496 Y7.562 E9.66343
G1 X137.881 Y7.644 E9.69919 F1800.000
G1 X139.196 Y8.071 E9.82488
G1 X139.553 Y8.231 E9.86047
G1 X140.751 Y8.922 E9.98626
G1 X141.068 Y9.152 E10.02184
G1 X142.098 Y10.080 E10.14789
G1 X142.359 Y10.370 E10.18341
G1 X143.173 Y11.490 E10.30925
G1 X143.368 Y11.828 E10.34477
G1 X143.932 Y13.094 E10.47080
G1 X144.053 Y13.467 E10.50644
G1 X144.340 Y14.818 E10.63206
G1 X144.381 Y15.208 E10.66768
G1 X144.418 Y15.901 E10.73079
G1 X144.418 Y184.099 E26.02496
G1 X144.381 Y184.792 E26.08807
G1 X144.340 Y185.182 E26.12369
G1 X144.053 Y186.533 E26.24931
G1 X143.932 Y186.906 E26.28496
G1 X143.368 Y188.172 E26.41097
G1 X143.173 Y188.510 E26.44650
G1 X142.359 Y189.630 E26.57234
G1 X142.098 Y189.920 E26.60787
G1 X141.068 Y190.848 E26.73390
G1 X140.752 Y191.077 E26.76945
G1 X139.553 Y191.769 E26.89530
G1 X139.196 Y191.928 E26.93082
G1 X137.881 Y192.356 E27.05656
G1 X137.496 Y192.438 E27.09233
G1 X136.119 Y192.582 E27.21823
G1 X63.881 Y192.582 E33.78686
G1 X62.504 Y192.438 E33.91276
G1 X62.119 Y192.356 E33.94852
G1 X60.804 Y191.928 E34.07426
G1 X60.447 Y191.769 E34.10978
G1 X59.248 Y191.077 E34.23563
G1 X58.932 Y190.848 E34.27119
G1 X57.902 Y189.920 E34.39721
G1 X57.640 Y189.630 E34.43276
G1 X56.827 Y188.510 E34.55858
G1 X56.632 Y188.172 E34.59410
G1 X56.068 Y186.906 E34.72013
G1 X55.947 Y186.533 E34.75576
G1 X55.660 Y185.182 E34.88138
G1 X55.619 Y184.792 E34.91700
G1 X55.582 Y184.099 E34.98012
G1 X55.582 Y15.901 E50.27429
G1 X55.619 Y15.208 E50.33741
G1 X55.660 Y14.818 E50.37303
G1 X55.931 Y13.540 E50.49185
G1 X60.762 Y15.030 F7800.000
G1 X60.908 Y14.580 E50.53484 F1800.000
G1 X60.975 Y14.431 E50.54975
G1 X61.252 Y13.951 E50.60016
G1 X61.348 Y13.818 E50.61504
G1 X61.719 Y13.406 E50.66545
G1 X61.841 Y13.296 E50.68035
G1 X62.290 Y12.971 E50.73077
G1 X62.431 Y12.889 E50.74565
G1 X62.938 Y12.663 E50.79605
G1 X63.301 Y12.569 E50.83018
G1 X63.799 Y12.480 E50.87615
G1 X136.201 Y12.480 E57.45966
G1 X136.364 Y12.497 E57.47455
G1 X136.907 Y12.613 E57.52500 F1800.000
G1 X137.062 Y12.663 E57.53986
G1 X137.569 Y12.889 E57.59027
G1 X137.710 Y12.971 E57.60514
G1 X138.159 Y13.296 E57.65556
G1 X138.281 Y13.406 E57.67046
G1 X138.652 Y13.818 E57.72088
G1 X138.748 Y13.951 E57.73576
G1 X139.025 Y14.431 E57.78616
G1 X139.092 Y14.580 E57.80107
G1 X139.263 Y15.108 E57.85149
G1 X139.297 Y15.268 E57.86635
G1 X139.355 Y15.860 E57.92048
G1 X139.355 Y184.140 E73.22209
G1 X139.297 Y184.732 E73.27622
G1 X139.263 Y184.892 E73.29108
G1 X139.092 Y185.420 E73.34151
G1 X139.025 Y185.569 E73.35641
G1 X138.748 Y186.049 E73.40681
G1 X138.652 Y186.182 E73.42169
G1 X138.281 Y186.594 E73.47211
G1 X138.159 Y186.704 E73.48701
G1 X137.710 Y187.029 E73.53743
G1 X137.569 Y187.111 E73.55231
G1 X137.062 Y187.337 E73.60270
G1 X136.699 Y187.431 E73.63684
G1 X136.201 Y187.520 E73.68281
G1 X63.799 Y187.520 E80.26632
G1 X63.301 Y187.431 E80.31229
G1 X62.938 Y187.337 E80.34643
G1 X62.431 Y187.111 E80.39682
G1 X62.290 Y187.029 E80.41170
G1 X61.841 Y186.704 E80.46212
G1 X61.719 Y186.594 E80.47702
G1 X61.348 Y186.182 E80.52744
G1 X61.252 Y186.049 E80.54231
G1 X60.975 Y185.569 E80.59272
G1 X60.908 Y185.420 E80.60763
G1 X60.737 Y184.892 E80.65805
G1 X60.703 Y184.732 E80.67290
G1 X60.645 Y184.140 E80.72703
G1 X60.645 Y15.860 E96.02865
G1 X60.703 Y15.268 E96.08279
G1 X60.739 Y15.101 E96.09824
G1 X61.357 Y15.223 F7800.000
G1 X61.533 Y14.715 E96.14715 F1800.000
G1 X61.777 Y14.291 E96.19161
G1 X62.235 Y13.783 E96.25384
G1 X62.631 Y13.495 E96.29830
G1 X63.162 Y13.248 E96.35163
G1 X63.832 Y13.105 E96.41386
G1 X136.168 Y13.105 E102.99142
G1 X136.745 Y13.217 E103.04479 F1800.000
G1 X137.002 Y13.321 E103.07001
G1 X137.369 Y13.495 E103.10702
G1 X137.838 Y13.849 E103.16038
G1 X138.223 Y14.291 E103.21373
G1 X138.507 Y14.805 E103.26708
G1 X138.679 Y15.366 E103.32042
G1 X138.730 Y15.876 E103.36710
G1 X138.730 Y184.124 E118.66574
G1 X138.679 Y184.634 E118.71243
G1 X138.507 Y185.195 E118.76577
G1 X138.223 Y185.709 E118.81912
G1 X137.838 Y186.151 E118.87247
G1 X137.369 Y186.505 E118.92582
G1 X136.838 Y186.752 E118.97916
G1 X136.168 Y186.895 E119.04139
G1 X63.832 Y186.895 E125.61895
G1 X63.162 Y186.752 E125.68119
G1 X62.631 Y186.505 E125.73452
G1 X62.235 Y186.217 E125.77898
G1 X61.835 Y185.788 E125.83234
G1 X61.493 Y185.195 E125.89457
G1 X61.321 Y184.634 E125.94790
G1 X61.270 Y184.124 E125.99459
G1 X61.270 Y15.876 E141.29323
G1 X61.336 Y15.295 E141.34643
G1 X61.951 Y15.416 F7800.000
G1 X62.090 Y14.999 E141.38641 F1800.000
G1 X62.302 Y14.632 E141.42492
G1 X62.629 Y14.269 E141.46934
G1 X62.971 Y14.020 E141.50784
G1 X63.386 Y13.832 E141.54930
G1 X63.864 Y13.730 E141.59373
G1 X136.168 Y13.734 E148.16829
G1 X136.614 Y13.832 E148.20976 F1800.000
G1 X137.029 Y14.020 E148.25122
G1 X137.371 Y14.269 E148.28972
G1 X137.679 Y14.606 E148.33118
G1 X137.923 Y15.029 E148.37561
G1 X138.061 Y15.464 E148.41707
G1 X138.105 Y15.893 E148.45631
G1 X138.105 Y184.107 E163.75197
G1 X138.061 Y184.536 E163.79122
G1 X137.923 Y184.971 E163.83268
G1 X137.698 Y185.368 E163.87414
G1 X137.396 Y185.709 E163.91561
G1 X137.029 Y185.980 E163.95707
G1 X136.614 Y186.168 E163.99853
G1 X136.136 Y186.270 E164.04296
G1 X63.864 Y186.270 E170.61456
G1 X63.386 Y186.168 E170.65899
G1 X62.971 Y185.980 E170.70045
G1 X62.629 Y185.731 E170.73895
G1 X62.321 Y185.394 E170.78041
G1 X62.077 Y184.971 E170.82484
G1 X61.939 Y184.536 E170.86630
G1 X61.895 Y184.107 E170.90554
G1 X61.895 Y15.893 E186.20121
G1 X61.936 Y15.489 E186.23808
G1 E184.23808 F2400.00000
G92 E0
G1 X116.026 Y14.393 F7800.000
G1 E2.00000 F2400.00000
G1 X136.083 Y14.393 E3.82373 F1800.000
G1 X136.301 Y14.439 E3.84403
G1 X136.393 Y14.458 E3.85256 F1800.000
G1 X136.682 Y14.587 E3.88140
G1 X136.939 Y14.774 E3.91023
G1 X137.151 Y15.009 E3.93906
G1 X137.310 Y15.284 E3.96790
G1 X137.408 Y15.586 E3.99673
G1 X137.443 Y15.919 E4.02724
G1 X137.443 Y184.081 E19.31807
G1 X137.408 Y184.414 E19.34858
G1 X137.310 Y184.716 E19.37742
G1 X137.151 Y184.991 E19.40625
G1 X136.939 Y185.226 E19.43509
G1 X136.682 Y185.413 E19.46391
G1 X136.393 Y185.542 E19.49275
G1 X136.083 Y185.607 E19.52158
G1 X63.917 Y185.607 E26.08352
G1 X63.607 Y185.542 E26.11235
G1 X63.318 Y185.413 E26.14119
G1 X63.061 Y185.226 E26.17002
G1 X62.849 Y184.991 E26.19885
G1 X62.690 Y184.716 E26.22769
G1 X62.592 Y184.414 E26.25652
G1 X62.557 Y184.081 E26.28703
G1 X62.557 Y15.919 E41.57786
G1 X62.592 Y15.586 E41.60837
G1 X62.690 Y15.284 E41.63721
G1 X62.849 Y15.009 E41.66604
G1 X63.061 Y14.774 E41.69488
G1 X63.318 Y14.587 E41.72371
G1 X63.522 Y14.497 E41.74401
G1 X63.607 Y14.458 E41.75254
G1 X63.917 Y14.393 E41.78137
G1 X115.951 Y14.393 E46.51276
G1 X116.276 Y14.826 F7800.000
G1 X116.026 Y15.017 F7800.000
G1 X136.017 Y15.017 E48.33052 F1800.000
G1 X136.171 Y15.050 E48.34484
G1 X136.368 Y15.132 E48.36426 F1800.000
G1 X136.518 Y15.241 E48.38114
G1 X136.643 Y15.379 E48.39802
G1 X136.736 Y15.540 E48.41491
G1 X136.793 Y15.716 E48.43181
G1 X136.818 Y15.952 E48.45337
G1 X136.818 Y184.048 E63.73824
G1 X136.793 Y184.284 E63.75980
G1 X136.736 Y184.460 E63.77670
G1 X136.643 Y184.621 E63.79358
G1 X136.518 Y184.759 E63.81047
G1 X136.368 Y184.868 E63.82736
G1 X136.198 Y184.944 E63.84425
G1 X136.017 Y184.983 E63.86114
G1 X63.983 Y184.983 E70.41113
G1 X63.802 Y184.944 E70.42802
G1 X63.632 Y184.868 E70.44491
G1 X63.482 Y184.759 E70.46180
G1 X63.357 Y184.621 E70.47868
G1 X63.264 Y184.460 E70.49557
G1 X63.207 Y184.284 E70.51247
G1 X63.182 Y184.048 E70.53403
G1 X63.182 Y15.952 E85.81890
G1 X63.207 Y15.716 E85.84046
G1 X63.264 Y15.540 E85.85736
G1 X63.357 Y15.379 E85.87425
G1 X63.482 Y15.241 E85.89113
G1 X63.632 Y15.132 E85.90802
G1 X63.776 Y15.067 E85.92235
G1 X63.983 Y15.017 E85.94175
G1 X115.951 Y15.017 E90.66716
G1 X136.004 Y15.654 F7800.000
G1 X136.098 Y15.708 E90.67702 F1800.000
G1 X136.162 Y15.795 E90.68685
G1 X136.193 Y15.985 E90.70434
G1 X136.193 Y184.015 E105.98324
G1 X136.162 Y184.205 E106.00074
G1 X136.054 Y184.324 E106.01534
G1 X135.951 Y184.358 E106.02519
G1 X63.996 Y184.346 E112.56806
G1 X63.902 Y184.292 E112.57791
G1 X63.838 Y184.205 E112.58774
G1 X63.807 Y184.015 E112.60523
G1 X63.807 Y15.985 E127.88413
G1 X63.838 Y15.795 E127.90162
G1 X63.946 Y15.676 E127.91623
G1 X64.049 Y15.642 E127.92608
G1 X135.930 Y15.642 E134.46223
G1 X135.814 Y16.337 F7800.000
G1 X135.509 Y16.032 E134.50152 F1800.000
G1 X134.624 Y16.032 E134.58213
G1 X135.814 Y17.222 E134.73541
G1 X135.814 Y18.107 E134.81600
G1 X133.739 Y16.032 E135.08328
G1 X132.854 Y16.032 E135.16388
G1 X135.814 Y18.992 E135.54515
G1 X135.814 Y19.877 E135.62574
G1 X131.969 Y16.032 E136.12100
G1 X131.083 Y16.031 E136.20161
G1 X135.814 Y20.762 E136.81086
G1 X135.814 Y21.647 E136.89145
G1 X130.198 Y16.031 E137.61469
G1 X129.313 Y16.031 E137.69530
G1 X135.814 Y22.532 E138.53253
G1 X135.814 Y23.417 E138.61313
G1 X128.428 Y16.031 E139.56435
G1 X127.543 Y16.031 E139.64496
G1 X135.814 Y24.302 E140.71017
G1 X135.814 Y25.187 E140.79076
G1 X126.658 Y16.031 E141.96997
G1 X125.773 Y16.031 E142.05058
G1 X135.814 Y26.072 E143.34378
G1 X135.814 Y26.957 E143.42437
G1 X124.887 Y16.030 E144.83156
G1 X124.002 Y16.030 E144.91217
G1 X135.814 Y27.842 E146.43335
G1 X135.814 Y28.727 E146.51394
G1 X123.117 Y16.030 E148.14912
G1 X122.232 Y16.030 E148.22972
G1 X135.814 Y29.612 E149.97889
G1 X135.814 Y30.497 E150.05948
G1 X121.347 Y16.030 E151.92264
G1 X120.462 Y16.030 E152.00324
G1 X135.814 Y31.382 E153.98039
G1 X135.814 Y32.267 E154.06098
G1 X119.576 Y16.030 E156.15212
G1 X118.691 Y16.029 E156.23273
G1 X135.814 Y33.153 E158.43786
G1 X135.814 Y34.038 E158.51845
G1 X117.806 Y16.029 E160.83758
G1 X116.921 Y16.029 E160.91818
G1 X135.814 Y34.923 E163.35130
G1 X135.814 Y35.808 E163.43189
G1 X116.036 Y16.029 E165.97900
G1 X115.151 Y16.029 E166.05960
G1 X135.814 Y36.693 E168.72070
G1 X135.814 Y37.578 E168.80129
G1 X114.266 Y16.029 E171.57638
G1 X113.380 Y16.029 E171.65698
G1 X135.814 Y38.463 E174.54607
G1 X135.814 Y39.348 E174.62666
G1 X112.495 Y16.028 E177.62973
G1 X111.610 Y16.028 E177.71033
G1 X135.814 Y40.233 E180.82740
G1 X135.814 Y41.118 E180.90799
G1 X110.725 Y16.028 E184.13905
G1 X109.840 Y16.028 E184.21965
G1 X135.814 Y42.003 E187.56470
G1 X135.814 Y42.888 E187.64529
G1 X108.955 Y16.028 E191.10433
G1 X108.069 Y16.028 E191.18493
G1 X135.814 Y43.773 E194.75796
G1 X135.814 Y44.658 E194.83856
G1 X107.184 Y16.028 E198.52558
G1 X106.299 Y16.028 E198.60618
G1 X135.814 Y45.543 E202.40720
G1 X135.814 Y46.428 E202.48779
G1 X105.414 Y16.027 E206.40279
G1 X104.529 Y16.027 E206.48340
G1 X135.814 Y47.313 E210.51239
G1 X135.814 Y48.198 E210.59298
G1 X103.644 Y16.027 E214.73597
G1 X102.759 Y16.027 E214.81658
G1 X135.814 Y49.083 E219.07356
G1 X135.814 Y49.968 E219.15415
G1 X101.873 Y16.027 E223.52512
G1 X100.988 Y16.027 E223.60572
G1 X135.814 Y50.853 E228.09069
G1 X135.814 Y51.738 E228.17128
G1 X100.103 Y16.027 E232.77023
G1 X99.218 Y16.026 E232.85084
G1 X135.814 Y52.623 E237.56378
G1 X135.814 Y53.508 E237.64437
G1 X98.333 Y16.026 E242.47131
G1 X97.448 Y16.026 E242.55192
G1 X135.814 Y54.393 E247.49284
G1 X135.814 Y55.278 E247.57344
G1 X96.562 Y16.026 E252.62836
G1 X95.677 Y16.026 E252.70896
G1 X135.814 Y56.163 E257.87787
G1 X135.814 Y57.048 E257.95846
G1 X94.792 Y16.026 E263.24137
G1 X93.907 Y16.026 E263.32197
G1 X135.814 Y57.933 E268.71887
G1 X135.814 Y58.818 E268.79946
G1 X93.022 Y16.025 E274.31034
G1 X92.137 Y16.025 E274.39095
G1 X135.814 Y59.703 E280.01583
G1 X135.814 Y60.588 E280.09642
G1 X91.251 Y16.025 E285.83529
G1 X90.366 Y16.025 E285.91589
G1 X135.814 Y61.473 E291.76875
G1 X135.814 Y62.358 E291.84934
G1 X89.481 Y16.025 E297.81620
G1 X88.596 Y16.025 E297.89680
G1 X135.814 Y63.243 E303.97764
G1 X135.814 Y64.128 E304.05823
G1 X87.711 Y16.025 E310.25307
G1 X86.826 Y16.024 E310.33367
G1 X135.814 Y65.013 E316.64250
G1 X135.814 Y65.898 E316.72309
G1 X85.941 Y16.024 E323.14591
G1 X85.055 Y16.024 E323.22651
G1 X135.814 Y66.783 E329.76332
G1 X135.814 Y67.668 E329.84392
G1 X84.170 Y16.024 E336.49472
G1 X83.285 Y16.024 E336.57532
G1 X135.814 Y68.553 E343.34011
G1 X135.814 Y69.438 E343.42071
G1 X82.400 Y16.024 E350.29949
G1 X81.515 Y16.024 E350.38009
G1 X135.814 Y70.323 E357.37287
G1 X135.814 Y71.208 E357.45346
G1 X80.630 Y16.023 E364.56023
G1 X79.744 Y16.023 E364.64083
G1 X135.814 Y72.093 E371.86159
G1 X135.814 Y72.978 E371.94218
G1 X78.859 Y16.023 E379.27693
G1 X77.974 Y16.023 E379.35754
G1 X135.814 Y73.863 E386.80628
G1 X135.814 Y74.748 E386.88687
G1 X77.089 Y16.023 E394.44960
G1 X76.204 Y16.023 E394.53021
G1 X135.814 Y75.633 E402.20693
G1 X135.814 Y76.518 E402.28752
G1 X75.319 Y16.023 E410.07824
G1 X74.434 Y16.023 E410.15885
G1 X135.814 Y77.403 E418.06355
G1 X135.814 Y78.288 E418.14414
G1 X73.548 Y16.022 E426.16284
G1 X72.663 Y16.022 E426.24345
G1 X135.814 Y79.173 E434.37614
G1 X135.814 Y80.058 E434.45673
G1 X71.778 Y16.022 E442.70341
G1 X70.893 Y16.022 E442.78402
G1 X135.814 Y80.943 E451.14469
G1 X135.814 Y81.828 E451.22528
G1 X70.008 Y16.022 E459.69995
G1 X69.123 Y16.022 E459.78055
G1 X135.814 Y82.713 E468.36921
G1 X135.814 Y83.598 E468.44980
G1 X68.237 Y16.022 E477.15245
G1 X67.352 Y16.021 E477.23305
G1 X135.814 Y84.483 E486.04969
G1 X135.814 Y85.368 E486.13029
G1 X66.467 Y16.021 E495.06092
G1 X65.582 Y16.021 E495.14152
G1 X135.814 Y86.253 E504.18614
G1 X135.814 Y87.139 E504.26674
G1 X64.697 Y16.021 E513.42535
G1 X64.186 Y16.395 E513.48302
G1 X135.814 Y88.024 E522.70747
G1 X135.814 Y88.909 E522.78806
G1 X64.186 Y17.280 E532.01251
G1 X64.186 Y18.165 E532.09310
G1 X135.814 Y89.794 E541.31755
G1 X135.814 Y90.679 E541.39814
G1 X64.186 Y19.050 E550.62259
G1 X64.186 Y19.935 E550.70318
G1 X135.814 Y91.564 E559.92763
G1 X135.814 Y92.449 E560.00822
G1 X64.186 Y20.820 E569.23267
G1 X64.186 Y21.705 E569.31326
G1 X135.814 Y93.334 E578.53771
G1 X135.814 Y94.219 E578.61830
G1 X64.186 Y22.590 E587.84275
G1 X64.186 Y23.475 E587.92334
G1 X135.814 Y95.104 E597.14779
G1 X135.814 Y95.989 E597.22838
G1 X64.186 Y24.360 E606.45283
G1 X64.186 Y25.245 E606.53342
G1 X135.814 Y96.874 E615.75787
G1 X135.814 Y97.759 E615.83846
G1 X64.186 Y26.130 E625.06291
G1 X64.186 Y27.015 E625.14350
G1 X135.814 Y98.644 E634.36795
G1 X135.814 Y99.529 E634.44854
G1 X64.186 Y27.900 E643.67299
G1 X64.186 Y28.785 E643.75358
G1 X135.814 Y100.414 E652.97803
G1 X135.814 Y101.299 E653.05863
G1 X64.186 Y29.670 E662.28307
G1 X64.186 Y30.555 E662.36367
G1 X135.814 Y102.184 E671.58811
G1 X135.814 Y103.069 E671.66871
G1 X64.186 Y31.440 E680.89316
G1 X64.186 Y32.325 E680.97375
G1 X135.814 Y103.954 E690.19820
G1 X135.814 Y104.839 E690.27879
G1 X64.186 Y33.210 E699.50324
G1 X64.186 Y34.095 E699.58383
G1 X135.814 Y105.724 E708.80828
G1 X135.814 Y106.609 E708.88887
G1 X64.186 Y34.980 E718.11332
G1 X64.186 Y35.865 E718.19391
G1 X135.814 Y107.494 E727.41836
G1 X135.814 Y108.379 E727.49895
G1 X64.186 Y36.750 E736.72340
G1 X64.186 Y37.635 E736.80399
G1 X135.814 Y109.264 E746.02844
G1 X135.814 Y110.149 E746.10903
G1 X64.186 Y38.520 E755.33348
G1 X64.186 Y39.405 E755.41407
G1 X135.814 Y111.034 E764.63852
G1 X135.814 Y111.919 E764.71911
G1 X64.186 Y40.290 E773.94356
G1 X64.186 Y41.175 E774.02415
G1 X135.814 Y112.804 E783.24860
G1 X135.814 Y113.689 E783.32919
